assets/sonr-icons/gas-fee.svg

<svg xmlns="http://www.w3.org/2000/svg" width="24" height="24" fill="none" viewBox="0 0 24 24"><path fill="#000" stroke="#000" stroke-width="1" d="M11.46 16.91C11.349 16.91 11.261 16.87 11.203 16.82C11.145 16.77 11.13 16.719 11.13 16.68C11.13 16.68 11.13 16.679 11.13 16.678L11.131 16.67C11.132 16.663 11.133 16.653 11.136 16.641C11.141 16.615 11.151 16.581 11.166 16.539C11.197 16.454 11.245 16.348 11.311 16.227C11.354 16.149 11.402 16.067 11.457 15.982C11.51 16.066 11.558 16.147 11.6 16.225C11.666 16.346 11.714 16.452 11.745 16.538C11.76 16.581 11.77 16.614 11.775 16.641C11.778 16.654 11.78 16.664 11.78 16.67L11.781 16.678C11.781 16.68 11.781 16.68 11.781 16.68C11.781 16.72 11.763 16.771 11.707 16.822C11.651 16.873 11.564 16.91 11.461 16.91H11.46ZM9.44 9.71996V7.07996H13.47V9.71996H9.44Z"/><path fill="#000" stroke="#000" stroke-width="1" d="M18.24 5.51002V5.72502L21.107 8.43302C21.357 8.66902 21.5 8.99902 21.5 9.33902V15.079C21.5 15.768 20.919 16.359 20.16 16.359H18.24V20.999H20.16C20.304 20.999 20.41 21.105 20.41 21.249C20.41 21.387 20.3 21.499 20.16 21.499H2.75C2.617 21.499 2.5 21.383 2.5 21.249C2.5 21.109 2.612 20.999 2.75 20.999H4.68V4.85902C4.68 3.55602 5.736 2.49902 7.04 2.49902H15.87C17.176 2.49902 18.24 3.55702 18.24 4.85902V5.50902V5.51002ZM18.24 15.36V15.86H20.16C20.539 15.86 21 15.586 21 15.08V12.25H18.24V15.36ZM20.5 11.75H21V9.34002C21 9.11202 20.897 8.93102 20.773 8.80702L18.24 6.40902V11.75H20.5ZM8.63 16.68C8.63 18.206 9.914 19.41 11.46 19.41C12.997 19.41 14.28 18.205 14.28 16.68C14.28 15.914 13.891 15.142 13.509 14.554C13.117 13.95 12.674 13.459 12.463 13.236C12.189 12.946 11.809 12.818 11.455 12.818C11.101 12.818 10.722 12.946 10.448 13.236C10.236 13.458 9.794 13.95 9.401 14.554C9.019 15.142 8.63 15.915 8.63 16.68ZM13.66 12.22C14.936 12.22 15.97 11.186 15.97 9.91002V6.89002C15.97 5.61302 14.936 4.58002 13.66 4.58002H9.25C7.973 4.58002 6.94 5.61402 6.94 6.89002V9.91002C6.94 11.186 7.974 12.22 9.25 12.22H13.66Z"/></svg>

<svg xmlns="http://www.w3.org/2000/svg" width="24" height="24" fill="none"><path fill="currentColor" stroke="#000" d="M11.46 16.91a.4.4 0 0 1-.257-.09c-.058-.05-.073-.101-.073-.14v-.002l.001-.008.005-.029a1 1 0 0 1 .03-.102 2.4 2.4 0 0 1 .145-.312q.064-.117.146-.245.08.126.143.243.099.183.145.313a1 1 0 0 1 .035.132l.001.008v.002c0 .04-.018.091-.074.142a.37.37 0 0 1-.246.088zM9.44 9.72V7.08h4.03v2.64z"/><path fill="currentColor" stroke="#000" d="M18.24 5.51v.215l2.867 2.708c.25.236.393.566.393.906v5.74c0 .689-.581 1.28-1.34 1.28h-1.92v4.64h1.92c.144 0 .25.106.25.25 0 .138-.11.25-.25.25H2.75a.256.256 0 0 1-.25-.25c0-.14.112-.25.25-.25h1.93V4.859a2.36 2.36 0 0 1 2.36-2.36h8.83a2.37 2.37 0 0 1 2.37 2.36v.651Zm0 9.85v.5h1.92c.379 0 .84-.274.84-.78v-2.83h-2.76zm2.26-3.61h.5V9.34a.75.75 0 0 0-.227-.533L18.24 6.409v5.341zM8.63 16.68c0 1.526 1.284 2.73 2.83 2.73 1.537 0 2.82-1.205 2.82-2.73 0-.766-.389-1.538-.771-2.126a9.6 9.6 0 0 0-1.046-1.318 1.39 1.39 0 0 0-1.008-.418c-.354 0-.733.128-1.007.418a9.5 9.5 0 0 0-1.047 1.318c-.382.588-.771 1.361-.771 2.126Zm5.03-4.46a2.31 2.31 0 0 0 2.31-2.31V6.89a2.31 2.31 0 0 0-2.31-2.31H9.25a2.31 2.31 0 0 0-2.31 2.31v3.02a2.31 2.31 0 0 0 2.31 2.31z"/></svg>
